src/pages/User/Import/asset/fail.svg

<svg fill="none" height="20" viewBox="0 0 20 20" width="20" xmlns="http://www.w3.org/2000/svg"><path d="m9.99997 2c-4.41828 0-7.99997 3.58171-7.99997 7.99997 0 4.41833 3.58167 8.00003 7.99996 8.00003 4.41834 0 8.00004-3.5817 8.00004-8.00001 0-4.41825-3.5816-7.99999-8.00003-7.99999z" fill="#ff3f3f"/><path clip-rule="evenodd" d="m14.0655 7.0657-1.1314-1.13137-2.93433 2.93431-2.93432-2.93431-1.13137 1.13137 2.93432 2.9343-2.93432 2.9343 1.13137 1.1314 2.93432-2.9343 2.93433 2.9343 1.1314-1.1314-2.9344-2.9343z" fill="#fff" fill-rule="evenodd"/></svg>

<svg width="20" height="20" viewBox="0 0 20 20" fill="none" xmlns="http://www.w3.org/2000/svg">
    <path d="M9.99997 2C5.58169 2 2 5.58171 2 9.99997C2 14.4183 5.58167 18 9.99996 18C14.4183 18 18 14.4183 18 9.99999C18 5.58174 14.4184 2 9.99997 2Z"
          fill="#FF3F3F"/>
    <path fill-rule="evenodd" clip-rule="evenodd"
          d="M14.0655 7.0657L12.9341 5.93433L9.99977 8.86864L7.06545 5.93433L5.93408 7.0657L8.8684 10L5.93408 12.9343L7.06545 14.0657L9.99977 11.1314L12.9341 14.0657L14.0655 12.9343L11.1311 10L14.0655 7.0657Z"
          fill="white"/>
</svg>
